X: 60
T:Chicago
M:6/8
L:1/8
R:Jig
D:Session tape - Corofin, Clare
Z:Bernie Stocks
K:G %i.e. Am with 1 sharp
A2B cBA | eAB cBA | G3 EGG | DGG EGG | A2B cBA | e2d efg | age dBG | ABA A3 ::\
A2a age | dBd g3 | gag gfe | dBA G3 | EGG DGG | EGG ABc | Bed BAG | BAA A3::\
ABA g2f | ABA gdB | GAG e2d | GAG edB | ABA g2f | ABA efg | age dBG | ABA A3:|
<end>
<start>
